X:23
T:Jenny of the Green
M:2/4
L:1/8
B:Thompson's Compleat Collection of 200 Favourite Country Dances, vol. 2 (London, 1765)
Z:Transcribed and edited by Flynn Titford-Mock, 2007
Z:abc's:AK/Fiddler's Companion
K:Eb
(3E/E/E/ G/E/d/B/ e | (3E/E/E/ G/E/ D/F/D/B,/ | (3E/E/E/ G/E/B/G/ e/>g/ | (3f/e/d/ (3c/B/=A/ BB, :|
|: (3B/B/B/ d/B/f/B/ _a | (3B/B/B/ e/B/g/B/ b | (3E/E/E/ G/>B/ (3E/E/E/ A/>c/ | B/A/G/F/ Ee :|

